icons/speech-bubble-24.svg

<svg xmlns="http://www.w3.org/2000/svg" viewBox="0 0 24 24"><title>speech-bubble-24</title><g id="icons"><path d="M6,8H18V9H6Zm0,4h9V11H6Zm1,7.51855V16H4.75A1.75213,1.75213,0,0,1,3,14.25V5.75A1.75213,1.75213,0,0,1,4.75,4h14.5A1.75213,1.75213,0,0,1,21,5.75v8.5a1.72959,1.72959,0,0,1-.17554.75h1.05847A2.71288,2.71288,0,0,0,22,14.25V5.75A2.7528,2.7528,0,0,0,19.25,3H4.75A2.7528,2.7528,0,0,0,2,5.75v8.5A2.7528,2.7528,0,0,0,4.75,17H6v4.48145l4-2.90882V17.33649ZM21,18.999V18H16.99994V14h-1v4h-4v.999h4V23h1V18.999Z"/></g></svg>

<svg xmlns="http://www.w3.org/2000/svg" viewBox="0 0 24 24"><path d="M6 8h12v1H6zm0 4h9v-1H6zm1 7.519V16H4.75A1.752 1.752 0 013 14.25v-8.5A1.752 1.752 0 014.75 4h14.5A1.752 1.752 0 0121 5.75v8.5a1.73 1.73 0 01-.176.75h1.059a2.713 2.713 0 00.117-.75v-8.5A2.753 2.753 0 0019.25 3H4.75A2.753 2.753 0 002 5.75v8.5A2.753 2.753 0 004.75 17H6v4.481l4-2.908v-1.237zm14-.52V18h-4v-4h-1v4h-4v.999h4V23h1v-4.001z"/></svg>
